X: 30813
T: Otter's Holt, The
R: reel
M: 4/4
K: Bminor
|:fBBA ~F3B|~A2FB AB/c/de|~f2BA ~F3A|B/c/dcA B2ba|
fBBA ~F3B|~A2FB AB/c/de|~f2af effe|1 dBAF B2ba:|2 dBAF BDFA||
|:d2df adfa|b2af effe|dcdf adfa|b2af effe|
dcdf adfa|b2af efde|~f2BA ~F3A|1 B/c/dcA ~B3c:|2 BdcA B2ba||

